X:513
T:Worried Man Blues
C:dAlan Bibey
N:sole dAlan Bibey - Transcribed by Philippe Colleu
R:bluegrass
L:1/8
Q:1/4=215
M:4/4
K:C
"B (110 bpm)"z^F ^GB F2 F2 | ^FB ^GF AB FB | ^F^G B^c d^d ^fd | "B7"^gd/z/ ^dB2^G B"3"^c/z/ | 
"E"^f[d'2f2]D [d'fAD][d'fAD] [d'fAD][d'f] | z[^c'2e2][c'2e2][c'2e2]^f | b^f ab =f/^f/f af | 
"B"e/f/e ^dB ed "2"B/z/^F | A^F ^GB F2 [BF]B | BB ^G^F AB FF | d/z/^d e=d e/f/e dB | 
ed e/f/e d/z3/2 e^c | "F#"a/z/_b ^f^c ef eB | ^FA BA _B^f =fd | "B"ed/^d/ BA B2 BB | 
{^F}Bd ef ^fb bf | af/z/ ed e/f/e dB | eB d/z/^d B4 | 


